Dominus_Dark_Funeral/22/places/folder-print.svg

<svg xmlns="http://www.w3.org/2000/svg" width="24" height="24" viewBox="0 0 12.7 12.7"><defs><linearGradient id="a"><stop offset="0" stop-color="#216778"/><stop offset="1" stop-color="#5fbcd3"/></linearGradient></defs><path d="M6.936 1.775l-1.004.98.84.84.84.841-.49.654c-.256.373-.56.7-.63.77-.093.047-1.073-.84-2.17-1.96l-2.03-2.055-.468.467-.443.444 1.984 1.937 1.96 1.96-.746.794a64.487 64.487 0 0 1-2.264 2.1c-.817.7-1.494 1.354-1.494 1.471 0 .257.7.887 1.003.887.117 0 .63-.443 1.097-1.004A40.846 40.846 0 0 1 6.47 7.237a25.698 25.698 0 0 0 4.271 4.668c.094 0 .304-.14.467-.303.374-.42.234-.63-1.237-1.984-1.89-1.774-2.1-1.96-2.754-2.358-.513-.326-.583-.397-.397-.653.327-.42.677-.747 1.144-1.05l.443-.304.747.747c.42.42.84.747.887.747.07 0 .537-.374 1.05-.864 1.027-1.003 1.027-1.214.14-2.334a2.87 2.87 0 0 1-.513-.793c.163-.14-.233-.677-.49-.677-.14 0-.654-.28-1.144-.63-.49-.374-.933-.654-1.003-.654-.07 0-.584.443-.56.98z" fill="#e6e6e6"/></svg>

<?xml version="1.0" encoding="UTF-8" standalone="no"?>
<svg
   xmlns:dc="http://purl.org/dc/elements/1.1/"
   xmlns:cc="http://creativecommons.org/ns#"
   xmlns:rdf="http://www.w3.org/1999/02/22-rdf-syntax-ns#"
   xmlns:svg="http://www.w3.org/2000/svg"
   xmlns="http://www.w3.org/2000/svg"
   xmlns:sodipodi="http://sodipodi.sourceforge.net/DTD/sodipodi-0.dtd"
   xmlns:inkscape="http://www.inkscape.org/namespaces/inkscape"
   width="24"
   height="24"
   viewBox="0 0 12.7 12.7"
   version="1.1"
   id="svg11"
   sodipodi:docname="folder-print.svg"
   inkscape:version="0.92.4 (5da689c313, 2019-01-14)">
  <metadata
     id="metadata15">
    <rdf:RDF>
      <cc:Work
         rdf:about="">
        <dc:format>image/svg+xml</dc:format>
        <dc:type
           rdf:resource="http://purl.org/dc/dcmitype/StillImage" />
        <dc:title></dc:title>
      </cc:Work>
    </rdf:RDF>
  </metadata>
  <sodipodi:namedview
     pagecolor="#ffffff"
     bordercolor="#666666"
     borderopacity="1"
     objecttolerance="10"
     gridtolerance="10"
     guidetolerance="10"
     inkscape:pageopacity="0"
     inkscape:pageshadow="2"
     inkscape:window-width="1112"
     inkscape:window-height="480"
     id="namedview13"
     showgrid="false"
     inkscape:zoom="9.8333333"
     inkscape:cx="1.0677966"
     inkscape:cy="12"
     inkscape:window-x="0"
     inkscape:window-y="25"
     inkscape:window-maximized="0"
     inkscape:current-layer="svg11" />
  <defs
     id="defs7">
    <linearGradient
       id="a">
      <stop
         offset="0"
         stop-color="#216778"
         id="stop2" />
      <stop
         offset="1"
         stop-color="#5fbcd3"
         id="stop4" />
    </linearGradient>
  </defs>
  <path
     d="m 6.936,1.775 -1.004,0.98 0.84,0.84 0.84,0.841 -0.49,0.654 C 6.866,5.463 6.562,5.79 6.492,5.86 6.399,5.907 5.419,5.02 4.322,3.9 L 2.292,1.845 1.824,2.312 1.381,2.756 3.365,4.693 5.325,6.653 4.579,7.447 a 64.487,64.487 0 0 1 -2.264,2.1 c -0.817,0.7 -1.494,1.354 -1.494,1.471 0,0.257 0.7,0.887 1.003,0.887 0.117,0 0.63,-0.443 1.097,-1.004 a 40.846,40.846 0 0 1 3.549,-3.664 25.698,25.698 0 0 0 4.271,4.668 c 0.094,0 0.304,-0.14 0.467,-0.303 0.374,-0.42 0.234,-0.63 -1.237,-1.984 C 8.081,7.844 7.871,7.658 7.217,7.26 6.704,6.934 6.634,6.863 6.82,6.607 7.147,6.187 7.497,5.86 7.964,5.557 L 8.407,5.253 9.154,6 c 0.42,0.42 0.84,0.747 0.887,0.747 0.07,0 0.537,-0.374 1.05,-0.864 1.027,-1.003 1.027,-1.214 0.14,-2.334 A 2.87,2.87 0 0 1 10.718,2.756 c 0.163,-0.14 -0.233,-0.677 -0.49,-0.677 -0.14,0 -0.654,-0.28 -1.144,-0.63 C 8.594,1.075 8.151,0.795 8.081,0.795 c -0.07,0 -0.584,0.443 -0.56,0.98 z"
     id="path9"
     inkscape:connector-curvature="0"
     style="fill:#e6e6e6" />
</svg>
